_includes/icons/ios-traveler.svg

<svg fill="#666" height="50" viewBox="0 0 50 50" width="50" xmlns="http://www.w3.org/2000/svg"><path d="m36 2c-2.75 0-5 2.25-5 5s2.25 5 5 5 5-2.25 5-5-2.25-5-5-5zm0 2c1.667969 0 3 1.332031 3 3s-1.332031 3-3 3-3-1.332031-3-3 1.332031-3 3-3zm-5.21875 8c-1.4375 0-2.804687.734375-3.59375 1.9375l-7.71875 11.8125c-.011719.011719-.019531.019531-.03125.03125-.613281.980469-.511719 2.210938.15625 3.09375l-2.03125 2.9375-3.28125-2.28125c-.644531-.449219-1.429687-.597656-2.15625-.46875-.726562.128906-1.394531.542969-1.84375 1.1875l-5.65625 8.09375c-1.105469 1.589844-.683594 3.800781.90625 4.90625l1.5625 1.09375c-.050781.214844-.09375.425781-.09375.65625 0 1.644531 1.355469 3 3 3s3-1.355469 3-3c0-.75-.285156-1.441406-.75-1.96875l6.21875-9.0625c.125-.109375.222656-.25.28125-.40625l2.53125-3.65625c1.058594.195313 2.183594-.210937 2.8125-1.15625.003906-.003906-.003906-.027344 0-.03125h.03125l3.34375-4.84375-.3125 1.625c-.273437 1.453125-.140625 2.941406.34375 4.3125l-1.5625 5.46875-5.46875 8.3125c-.800781 1.21875-.546875 2.871094.59375 3.78125 1.246094.996094 3.105469.75 4.0625-.53125l5.84375-7.78125c.039063-.058594.070313-.121094.09375-.1875l.65625-1.5 5.34375 9.125c.539063.921875 1.523438 1.5 2.59375 1.5 2.132813 0 3.605469-2.265625 2.75-4.21875l-6.4375-14.6875.5625-2.90625 5.15625 4.21875c1.109375.902344 2.765625.75 3.6875-.34375.933594-1.109375.800781-2.789062-.3125-3.71875l-5.53125-4.625-1.5625-4.5c-.3125-2.867187-2.761719-5.21875-5.8125-5.21875zm0 2h1.375c1.972656 0 3.511719 1.433594 3.78125 3.25-.003906.128906.019531.253906.0625.375.015625.296875-.003906.597656-.0625.90625l-2 10.5c-.035156.191406-.011719.386719.0625.5625l6.5625 15c.308594.699219-.140625 1.40625-.90625 1.40625-.359375 0-.695312-.1875-.875-.5l-6.25-10.6875c0-.011719 0-.019531 0-.03125l-.03125-.0625c-.035156-.054687-.078125-.109375-.125-.15625l-2.5-4.3125c-.113281-.195312-.222656-.390625-.3125-.59375-.015625-.15625-.070312-.304687-.15625-.4375-.003906-.007812.003906-.023437 0-.03125-.011719-.011719-.019531-.019531-.03125-.03125-.367187-1.046875-.457031-2.171875-.25-3.28125l1.15625-6.21875c.09375-.46875-.15625-.9375-.597656-1.117187-.441406-.183594-.949219-.027344-1.214844.367187l-6 8.71875c-.011719.011719-.019531.019531-.03125.03125-.246094.382813-.722656.453125-1.09375.1875-.335937-.242187-.4375-.648437-.21875-1l7.75-11.8125c.417969-.640625 1.140625-1.03125 1.90625-1.03125zm6.59375 7.65625.34375.96875c.0625.171875.171875.324219.3125.4375l5.75 4.8125c.28125.238281.300781.625.0625.90625-.234375.277344-.625.292969-.90625.0625l-5.90625-4.8125c-.03125-.023437-.0625-.042969-.09375-.0625zm-24.90625 9.34375c.21875-.039062.453125.015625.65625.15625l3.3125 2.3125-5.9375 8.59375c-.164062-.027344-.328125-.0625-.5-.0625-.703125 0-1.359375.242188-1.875.65625l-1.46875-1.03125c-.703125-.488281-.863281-1.421875-.375-2.125l5.625-8.125c.140625-.203125.34375-.335937.5625-.375zm16.34375 1.40625 1.6875 2.84375-1.15625 2.625-.03125.03125-5.78125 7.75c-.292969.394531-.832031.464844-1.21875.15625-.347656-.277344-.433594-.75-.1875-1.125l5.53125-8.4375c.054688-.078125.09375-.160156.125-.25zm-18.8125 11.59375c.03125 0 .0625-.003906.09375 0 .167969.195313.402344.316406.65625.34375.152344.175781.25.398438.25.65625 0 .5625-.4375 1-1 1s-1-.4375-1-1 .4375-1 1-1z"/></svg>

<svg xmlns="http://www.w3.org/2000/svg" viewBox="0 0 50 50" width="50" height="50" fill="#666"><path d="M 36 2 C 33.25 2 31 4.25 31 7 C 31 9.75 33.25 12 36 12 C 38.75 12 41 9.75 41 7 C 41 4.25 38.75 2 36 2 Z M 36 4 C 37.667969 4 39 5.332031 39 7 C 39 8.667969 37.667969 10 36 10 C 34.332031 10 33 8.667969 33 7 C 33 5.332031 34.332031 4 36 4 Z M 30.78125 12 C 29.34375 12 27.976563 12.734375 27.1875 13.9375 L 19.46875 25.75 C 19.457031 25.761719 19.449219 25.769531 19.4375 25.78125 C 18.824219 26.761719 18.925781 27.992188 19.59375 28.875 L 17.5625 31.8125 L 14.28125 29.53125 C 13.636719 29.082031 12.851563 28.933594 12.125 29.0625 C 11.398438 29.191406 10.730469 29.605469 10.28125 30.25 L 4.625 38.34375 C 3.519531 39.933594 3.941406 42.144531 5.53125 43.25 L 7.09375 44.34375 C 7.042969 44.558594 7 44.769531 7 45 C 7 46.644531 8.355469 48 10 48 C 11.644531 48 13 46.644531 13 45 C 13 44.25 12.714844 43.558594 12.25 43.03125 L 18.46875 33.96875 C 18.59375 33.859375 18.691406 33.71875 18.75 33.5625 L 21.28125 29.90625 C 22.339844 30.101563 23.464844 29.695313 24.09375 28.75 C 24.097656 28.746094 24.089844 28.722656 24.09375 28.71875 L 24.125 28.71875 L 27.46875 23.875 L 27.15625 25.5 C 26.882813 26.953125 27.015625 28.441406 27.5 29.8125 L 25.9375 35.28125 L 20.46875 43.59375 C 19.667969 44.8125 19.921875 46.464844 21.0625 47.375 C 22.308594 48.371094 24.167969 48.125 25.125 46.84375 L 30.96875 39.0625 C 31.007813 39.003906 31.039063 38.941406 31.0625 38.875 L 31.71875 37.375 L 37.0625 46.5 C 37.601563 47.421875 38.585938 48 39.65625 48 C 41.789063 48 43.261719 45.734375 42.40625 43.78125 L 35.96875 29.09375 L 36.53125 26.1875 L 41.6875 30.40625 C 42.796875 31.308594 44.453125 31.15625 45.375 30.0625 C 46.308594 28.953125 46.175781 27.273438 45.0625 26.34375 L 39.53125 21.71875 L 37.96875 17.21875 C 37.65625 14.351563 35.207031 12 32.15625 12 Z M 30.78125 14 L 32.15625 14 C 34.128906 14 35.667969 15.433594 35.9375 17.25 C 35.933594 17.378906 35.957031 17.503906 36 17.625 C 36.015625 17.921875 35.996094 18.222656 35.9375 18.53125 L 33.9375 29.03125 C 33.902344 29.222656 33.925781 29.417969 34 29.59375 L 40.5625 44.59375 C 40.871094 45.292969 40.421875 46 39.65625 46 C 39.296875 46 38.960938 45.8125 38.78125 45.5 L 32.53125 34.8125 C 32.53125 34.800781 32.53125 34.792969 32.53125 34.78125 L 32.5 34.71875 C 32.464844 34.664063 32.421875 34.609375 32.375 34.5625 L 29.875 30.25 C 29.761719 30.054688 29.652344 29.859375 29.5625 29.65625 C 29.546875 29.5 29.492188 29.351563 29.40625 29.21875 C 29.402344 29.210938 29.410156 29.195313 29.40625 29.1875 C 29.394531 29.175781 29.386719 29.167969 29.375 29.15625 C 29.007813 28.109375 28.917969 26.984375 29.125 25.875 L 30.28125 19.65625 C 30.375 19.1875 30.125 18.71875 29.683594 18.539063 C 29.242188 18.355469 28.734375 18.511719 28.46875 18.90625 L 22.46875 27.625 C 22.457031 27.636719 22.449219 27.644531 22.4375 27.65625 C 22.191406 28.039063 21.714844 28.109375 21.34375 27.84375 C 21.007813 27.601563 20.90625 27.195313 21.125 26.84375 L 28.875 15.03125 C 29.292969 14.390625 30.015625 14 30.78125 14 Z M 37.375 21.65625 L 37.71875 22.625 C 37.78125 22.796875 37.890625 22.949219 38.03125 23.0625 L 43.78125 27.875 C 44.0625 28.113281 44.082031 28.5 43.84375 28.78125 C 43.609375 29.058594 43.21875 29.074219 42.9375 28.84375 L 37.03125 24.03125 C 37 24.007813 36.96875 23.988281 36.9375 23.96875 Z M 12.46875 31 C 12.6875 30.960938 12.921875 31.015625 13.125 31.15625 L 16.4375 33.46875 L 10.5 42.0625 C 10.335938 42.035156 10.171875 42 10 42 C 9.296875 42 8.640625 42.242188 8.125 42.65625 L 6.65625 41.625 C 5.953125 41.136719 5.792969 40.203125 6.28125 39.5 L 11.90625 31.375 C 12.046875 31.171875 12.25 31.039063 12.46875 31 Z M 28.8125 32.40625 L 30.5 35.25 L 29.34375 37.875 L 29.3125 37.90625 L 23.53125 45.65625 C 23.238281 46.050781 22.699219 46.121094 22.3125 45.8125 C 21.964844 45.535156 21.878906 45.0625 22.125 44.6875 L 27.65625 36.25 C 27.710938 36.171875 27.75 36.089844 27.78125 36 Z M 10 44 C 10.03125 44 10.0625 43.996094 10.09375 44 C 10.261719 44.195313 10.496094 44.316406 10.75 44.34375 C 10.902344 44.519531 11 44.742188 11 45 C 11 45.5625 10.5625 46 10 46 C 9.4375 46 9 45.5625 9 45 C 9 44.4375 9.4375 44 10 44 Z"/></svg>
